images_sukapura_svg/cmd/32/insertrows.svg

<svg viewBox="0 0 32 32" xmlns="http://www.w3.org/2000/svg" xmlns:xlink="http://www.w3.org/1999/xlink"><linearGradient id="a" gradientUnits="userSpaceOnUse" x1="6" x2="6" y1="14" y2="8"><stop offset="0" stop-color="#007018"/><stop offset="1" stop-color="#32d74b"/></linearGradient><path d="m10 9h18v4h-18z" fill="#32d74b"/><path d="m4 3v5h18v-5zm0 11v1 14h11 4 3v-3-4-7-1z" fill="#fff"/><path d="m3 2v1 5h1 5 1 5 1 6 1v-1-4-1h-19zm1 1h5v4h-5zm6 0h5v4h-5zm6 0h6v4h-6zm-13 11v15c0 .554.446 1 1 1h18c.554 0 1.033514-.447015 1-1v-3-1-1-2-8h-1-6-1-5-1-5zm1 1h5v4h-5zm6 0h5v4h-5zm6 0h6v4h-6zm-12 5h5v4h-5zm6 0h5v2 2h-5zm6 0h6v2 2h-6v-1.716797-.283203zm-12 5h5v4h-5zm6 0h5v.716797 3.283203h-5zm6 0h6v1 3h-6z" fill="#bababa"/><path d="m9 8v1 5h1 5 1 5 1 6 1v-1-4-1h-19zm1 1h5v4h-5zm6 0h5v4h-5zm6 0h6v4h-6z" fill="#007018"/><path d="m3 2v1 5h1v-1-4h5 1 5 1 6v4 1h1v-1-4-1h-19zm0 12v15c0 .554.446 1 1 1h18c.554 0 1.033514-.447015 1-1v-3-1-1-2-8h-1v1 4 1 2 2 1 1 3h-3-3-1-5-1-5v-4-1-4-1-4-1z" fill="#69696e"/><path d="m3 2v1 5h1v-1-4h5 1 5 1 6v4 1h1v-1-4-1h-19zm0 12v15c0 .554.446 1 1 1h18c.554 0 1.033514-.447015 1-1v-3-1-1-2-8h-1v1 4 1 2 2 1 1 3h-3-3-1-5-1-5v-4-1-4-1-4-1z" fill="#69696e"/><path d="m4.453125 7c-.3310186.0102948-.6573936.134039-.9121094.3457031a1.0001935 1.0001935 0 0 0 -.0019531.0019531l-.5390625.4492188v.203125h2.8964844c-.2271029-.5767256-.8142654-1.0186333-1.4414063-1zm-1.453125 7v.203125l.5390625.449219c.4353692.363074 1.0844152.447766 1.5976563.207031.3573086-.167595.6276384-.489622.7636718-.859375z" fill="#fff" fill-opacity=".784314"/><path d="m4.484375 8c-.1115776.00333-.2188339.043892-.3046875.1152344l-3 2.4999996c-.24089011.199955-.24089011.569577 0 .769532l3 2.5c.3259264.271805.8209343.039622.8203125-.384766v-1.5h2.5c.2761309-.000028.4999724-.223869.5-.5v-1c-.0000276-.276131-.2238691-.499972-.5-.5h-2.5v-1.5c.0001088-.2823489-.2334131-.5087943-.515625-.5z" fill="url(#a)"/></svg>

<?xml version="1.0" encoding="UTF-8" standalone="no"?>
<svg
   xmlns:dc="http://purl.org/dc/elements/1.1/"
   xmlns:cc="http://creativecommons.org/ns#"
   xmlns:rdf="http://www.w3.org/1999/02/22-rdf-syntax-ns#"
   xmlns:svg="http://www.w3.org/2000/svg"
   xmlns="http://www.w3.org/2000/svg"
   xmlns:xlink="http://www.w3.org/1999/xlink"
   xmlns:sodipodi="http://sodipodi.sourceforge.net/DTD/sodipodi-0.dtd"
   xmlns:inkscape="http://www.inkscape.org/namespaces/inkscape"
   viewBox="0 0 32 32"
   version="1.1"
   id="svg10"
   sodipodi:docname="insertrows.svg"
   inkscape:export-filename="/home/rizmut/Dokumen/Rizmut/Github/libreoffice-style-sukapura/images_sukapura/cmd/32/insertrows.png"
   inkscape:export-xdpi="96"
   inkscape:export-ydpi="96"
   inkscape:version="0.92.3 (unknown)">
  <metadata
     id="metadata16">
    <rdf:RDF>
      <cc:Work
         rdf:about="">
        <dc:format>image/svg+xml</dc:format>
        <dc:type
           rdf:resource="http://purl.org/dc/dcmitype/StillImage" />
        <dc:title></dc:title>
      </cc:Work>
    </rdf:RDF>
  </metadata>
  <defs
     id="defs14">
    <linearGradient
       inkscape:collect="always"
       id="linearGradient1719">
      <stop
         style="stop-color:#007018;stop-opacity:1;"
         offset="0"
         id="stop1715" />
      <stop
         style="stop-color:#32d74b;stop-opacity:1"
         offset="1"
         id="stop1717" />
    </linearGradient>
    <linearGradient
       inkscape:collect="always"
       xlink:href="#linearGradient1719"
       id="linearGradient923"
       x1="6"
       y1="14"
       x2="6"
       y2="8"
       gradientUnits="userSpaceOnUse" />
  </defs>
  <sodipodi:namedview
     pagecolor="#ffffff"
     bordercolor="#666666"
     borderopacity="1"
     objecttolerance="10"
     gridtolerance="10"
     guidetolerance="10"
     inkscape:pageopacity="0"
     inkscape:pageshadow="2"
     inkscape:window-width="1366"
     inkscape:window-height="699"
     id="namedview12"
     showgrid="true"
     inkscape:zoom="3.6875"
     inkscape:cx="12.432227"
     inkscape:cy="26.253963"
     inkscape:window-x="0"
     inkscape:window-y="0"
     inkscape:window-maximized="1"
     inkscape:current-layer="svg10">
    <inkscape:grid
       type="xygrid"
       id="grid823"
       spacingx="0.5"
       spacingy="0.5"
       empspacing="2" />
  </sodipodi:namedview>
  <rect
     style="opacity:1;fill:#32d74b;fill-opacity:1;stroke:none;stroke-width:1;stroke-linecap:round;stroke-linejoin:round;stroke-miterlimit:4;stroke-dasharray:none;stroke-opacity:0"
     id="rect889"
     width="18"
     height="4"
     x="10"
     y="9" />
  <path
     d="M 4,3 V 8 H 22 V 3 Z m 0,11 v 1 14 h 11 4 3 v -3 -4 -7 -1 z"
     id="path2"
     style="fill:#ffffff;fill-opacity:1"
     inkscape:connector-curvature="0"
     sodipodi:nodetypes="cccccccccccccccc" />
  <path
     style="fill:#bababa;fill-opacity:1"
     d="M 3 2 L 3 3 L 3 8 L 4 8 L 9 8 L 10 8 L 15 8 L 16 8 L 22 8 L 23 8 L 23 7 L 23 3 L 23 2 L 4 2 L 3 2 z M 4 3 L 9 3 L 9 7 L 4 7 L 4 3 z M 10 3 L 15 3 L 15 7 L 10 7 L 10 3 z M 16 3 L 22 3 L 22 7 L 16 7 L 16 3 z M 3 14 L 3 29 C 3 29.554 3.446 30 4 30 L 22 30 C 22.554 30 23.033514 29.552985 23 29 L 23 26 L 23 25 L 23 24 L 23 22 L 23 14 L 22 14 L 16 14 L 15 14 L 10 14 L 9 14 L 4 14 L 3 14 z M 4 15 L 9 15 L 9 19 L 4 19 L 4 15 z M 10 15 L 15 15 L 15 19 L 10 19 L 10 15 z M 16 15 L 22 15 L 22 19 L 16 19 L 16 15 z M 4 20 L 9 20 L 9 24 L 4 24 L 4 20 z M 10 20 L 15 20 L 15 22 L 15 24 L 10 24 L 10 20 z M 16 20 L 22 20 L 22 22 L 22 24 L 16 24 L 16 22.283203 L 16 22 L 16 20 z M 4 25 L 9 25 L 9 29 L 4 29 L 4 25 z M 10 25 L 15 25 L 15 25.716797 L 15 29 L 10 29 L 10 25 z M 16 25 L 22 25 L 22 26 L 22 29 L 16 29 L 16 25 z "
     id="path4" />
  <path
     id="path887"
     d="m 9,8 v 1 5 h 1 5 1 5 1 6 1 V 13 9 8 H 10 Z m 1,1 h 5 v 4 h -5 z m 6,0 h 5 v 4 h -5 z m 6,0 h 6 v 4 h -6 z"
     inkscape:connector-curvature="0"
     style="fill:#007018;fill-opacity:1" />
  <path
     style="fill:#69696e;fill-opacity:1"
     d="M 3 2 L 3 3 L 3 8 L 4 8 L 4 7 L 4 3 L 9 3 L 10 3 L 15 3 L 16 3 L 22 3 L 22 7 L 22 8 L 23 8 L 23 7 L 23 3 L 23 2 L 4 2 L 3 2 z M 3 14 L 3 29 C 3 29.554 3.446 30 4 30 L 22 30 C 22.554 30 23.033514 29.552985 23 29 L 23 26 L 23 25 L 23 24 L 23 22 L 23 14 L 22 14 L 22 15 L 22 19 L 22 20 L 22 22 L 22 24 L 22 25 L 22 26 L 22 29 L 19 29 L 16 29 L 15 29 L 10 29 L 9 29 L 4 29 L 4 25 L 4 24 L 4 20 L 4 19 L 4 15 L 4 14 L 3 14 z "
     id="path902" />
  <path
     id="path907"
     d="M 3 2 L 3 3 L 3 8 L 4 8 L 4 7 L 4 3 L 9 3 L 10 3 L 15 3 L 16 3 L 22 3 L 22 7 L 22 8 L 23 8 L 23 7 L 23 3 L 23 2 L 4 2 L 3 2 z M 3 14 L 3 29 C 3 29.554 3.446 30 4 30 L 22 30 C 22.554 30 23.033514 29.552985 23 29 L 23 26 L 23 25 L 23 24 L 23 22 L 23 14 L 22 14 L 22 15 L 22 19 L 22 20 L 22 22 L 22 24 L 22 25 L 22 26 L 22 29 L 19 29 L 16 29 L 15 29 L 10 29 L 9 29 L 4 29 L 4 25 L 4 24 L 4 20 L 4 19 L 4 15 L 4 14 L 3 14 z "
     style="fill:#69696e;fill-opacity:1" />
  <path
     style="fill:#ffffff;fill-opacity:0.78431374;stroke:none;stroke-width:1px;stroke-linecap:butt;stroke-linejoin:miter;stroke-opacity:1"
     d="M 4.453125 7 C 4.1221064 7.0102948 3.7957314 7.134039 3.5410156 7.3457031 A 1.0001935 1.0001935 0 0 0 3.5390625 7.3476562 L 3 7.796875 L 3 8 L 5.8964844 8 C 5.6693815 7.4232744 5.082219 6.9813667 4.4550781 7 L 4.453125 7 z M 3 14 L 3 14.203125 L 3.5390625 14.652344 C 3.9744317 15.015418 4.6234777 15.10011 5.1367188 14.859375 C 5.4940274 14.69178 5.7643572 14.369753 5.9003906 14 L 3 14 z "
     id="path925" />
  <path
     style="fill:url(#linearGradient923);fill-opacity:1;stroke:none;stroke-width:1px;stroke-linecap:butt;stroke-linejoin:miter;stroke-opacity:1"
     d="m 4.484375,8 c -0.1115776,0.00333 -0.2188339,0.043892 -0.3046875,0.1152344 l -3,2.4999996 c -0.24089011,0.199955 -0.24089011,0.569577 0,0.769532 l 3,2.5 C 4.5056139,14.156571 5.0006218,13.924388 5,13.5 V 12 h 2.5 c 0.2761309,-2.8e-5 0.4999724,-0.223869 0.5,-0.5 v -1 C 7.9999724,10.223869 7.7761309,10.000028 7.5,10 H 5 V 8.5 C 5.0001088,8.2176511 4.7665869,7.9912057 4.484375,8 Z"
     id="path912"
     inkscape:connector-curvature="0"
     sodipodi:nodetypes="cccccccccccccc" />
</svg>
